!!!OTL: Melodie eines Waechterliedes
!!!ARE: Europa, Mitteleuropa, Deutschland
!!!SCT: A0106
!!!YEM: Copyright 1995, estate of Helmut Schaffrath.
**kern
*ICvox
*Ivox
!! Mixed meters:  3/2; 4/2
*M4/2
*k[f#c#]
*D:
{2d
=1
1g
2a
=2
1b
2b
=3
1dd}
{2ccn
=4
1b
2a
=5
1b
2a
=6
1g}
{2g
=7
1a
2b
=8
1b
2a
=9
1g}
{2fn
=10
1e
2e
=11
1g
2e
=12
1d}
{2e
=13
1cn
2d
=14
1e
2e
=15
1fn
2e
=16
1d}
{2d
=17
1g
2ccn
=18
1b
2g
=19
1g
2b
=20
1b
2a
=21
1g}
{2d
=22
1g
2ccn
=23
1b
2g
=24
1g
2b
=25
1b
2a
=26
1g}
{2fn
=27
1e
1d
=28
1a
2g
2fn
=29
1e
1a
=30
1.e}
==
!!!AGN: Romanze, Ballade, Lied
!! Strassb. Hs. No. 121 Bl 45b (14. Jh.)
!!!ONB: ESAC (Essen Associative Code) Database: ALTDEU
!!!AMT: irregular
!!!AIN: vox
!!!EED: Helmut Schaffrath
!!!EEV: 1.0
*-
